packages/icons/svg/Outline/maximize.svg

<svg fill="none" height="24" viewBox="0 0 24 24" width="24" xmlns="http://www.w3.org/2000/svg"><path clip-rule="evenodd" d="m13 10.0001h-1v-1.00003c0-.55-.45-1-1-1s-1 .45-1 1v1.00003h-.99998c-.55 0-1 .45-1 1s.45 1 1 1h.99998v1c0 .55.45 1 1 1s1-.45 1-1v-1h1c.55 0 1-.45 1-1s-.45-1-1-1zm-7.99998 1c0-3.30904 2.691-6.00003 5.99998-6.00003 3.309 0 6 2.69099 6 6.00003 0 3.309-2.691 6-6 6-3.30898 0-5.99998-2.691-5.99998-6zm15.70698 8.2929-3.395-3.396c1.053-1.354 1.688-3.051 1.688-4.897 0-4.411-3.589-8-8-8s-8 3.589-8 8 3.589 8 8 8c1.846 0 3.543-.635 4.897-1.688l3.396 3.395c.195.195.451.293.707.293s.512-.098.707-.293c.391-.391.391-1.023 0-1.414z" fill="#6b7280" fill-rule="evenodd"/></svg>

<svg width="24" height="24" viewBox="0 0 24 24" fill="none" xmlns="http://www.w3.org/2000/svg">
<g id="Icon/Outline/maximize">
<path id="Mask" fill-rule="evenodd" clip-rule="evenodd" d="M13 10H12V9C12 8.45 11.55 8 11 8C10.45 8 10 8.45 10 9V10H9C8.45 10 8 10.45 8 11C8 11.55 8.45 12 9 12H10V13C10 13.55 10.45 14 11 14C11.55 14 12 13.55 12 13V12H13C13.55 12 14 11.55 14 11C14 10.45 13.55 10 13 10ZM5 11C5 7.691 7.691 5 11 5C14.309 5 17 7.691 17 11C17 14.309 14.309 17 11 17C7.691 17 5 14.309 5 11ZM20.707 19.293L17.312 15.897C18.365 14.543 19 12.846 19 11C19 6.589 15.411 3 11 3C6.589 3 3 6.589 3 11C3 15.411 6.589 19 11 19C12.846 19 14.543 18.365 15.897 17.312L19.293 20.707C19.488 20.902 19.744 21 20 21C20.256 21 20.512 20.902 20.707 20.707C21.098 20.316 21.098 19.684 20.707 19.293Z" fill="#000000"/>
</g>
</svg>
